X:605
T:Reel 605
M:4/4
K:Gmaj
L:1/8
 (3def |gG (3GGG DG (3BAG |AGFG ABcA|dG (3GGG BABd|egfa gedc|dG (3GFG dGBG|ABcd edef|gfge fgfd|ecAB G2|cB|AFAB c2BA| (3BAG dB e2Ac| (3BAG AB cdeg|fdef gedB| (3BAG dG eGdG|cABG ABcA|Bd (3GAG dGeG|cAFA G2|
